source/img/icons8-git.svg

<svg width="67" height="67" viewBox="0 0 67 67" version="1.1" xmlns="http://www.w3.org/2000/svg" xmlns:xlink="http://www.w3.org/1999/xlink">
<title>icons8-git</title>
<desc>Created using Figma</desc>
<g id="Canvas" transform="translate(50 -774)">
<g id="icons8-git">
<g id="surface1">
<g id="Vector">
<use xlink:href="#path0_fill" transform="translate(-50 774)" fill="#F4511E"/>
</g>
</g>
</g>
</g>
<defs>
<path id="path0_fill" d="M 65.5881 30.1528L 36.8472 1.4119C 35.9657 0.530324 34.7328 0 33.5 0C 32.2672 0 31.0343 0.530324 30.1528 1.4119L 23.9817 7.58296L 31.2065 14.8078C 31.9159 14.4565 32.6184 14.2843 33.5 14.2843C 36.496 14.2843 38.7895 16.5709 38.7895 19.5738C 38.7895 20.4554 38.6104 21.1579 38.2591 21.8604L 45.3118 28.913C 46.0212 28.5618 46.7237 28.3896 47.6053 28.3896C 50.6013 28.3896 52.8947 30.6762 52.8947 33.6791C 52.8947 36.6751 50.6013 38.9685 47.6053 38.9685C 44.6093 38.9685 42.3158 36.6751 42.3158 33.6791C 42.3158 32.7975 42.4949 32.0881 42.8461 31.3856L 35.7935 24.333C 35.6144 24.333 35.4422 24.5051 35.2632 24.5051L 35.2632 42.8461C 37.3776 43.5486 38.7895 45.4908 38.7895 47.7843C 38.7895 50.7803 36.496 53.0738 33.5 53.0738C 30.504 53.0738 28.2105 50.7803 28.2105 47.7843C 28.2105 45.4908 29.6224 43.5486 31.7368 42.8461L 31.7368 24.333C 29.6224 23.6236 28.2105 21.6882 28.2105 19.3947C 28.2105 18.5132 28.3896 17.8106 28.7409 17.1013L 21.5091 9.87644L 1.4119 30.1528C 0.530324 31.0343 0 32.2672 0 33.5C 0 34.7328 0.530324 35.9657 1.4119 36.8472L 30.1528 65.5881C 31.0343 66.4697 32.2672 67 33.5 67C 34.7328 67 35.9657 66.4697 36.8472 65.5881L 65.5881 36.8472C 66.4697 35.9657 67 34.7328 67 33.5C 67 32.2672 66.4697 31.0343 65.5881 30.1528Z"/>
</defs>
</svg>

<svg width="67" height="67" xmlns="http://www.w3.org/2000/svg" xmlns:xlink="http://www.w3.org/1999/xlink"><use xlink:href="#path0_fill" fill="#F4511E"/><defs><path id="path0_fill" d="M65.588 30.153L36.848 1.412C35.965.53 34.732 0 33.5 0c-1.233 0-2.466.53-3.347 1.412l-6.171 6.171 7.224 7.225c.71-.351 1.412-.524 2.294-.524 2.996 0 5.29 2.287 5.29 5.29 0 .881-.18 1.584-.53 2.286l7.052 7.053c.71-.351 1.412-.523 2.293-.523 2.996 0 5.29 2.286 5.29 5.29 0 2.995-2.294 5.288-5.29 5.288s-5.29-2.293-5.29-5.289c0-.882.18-1.59.531-2.293l-7.052-7.053c-.18 0-.352.172-.53.172v18.341c2.114.703 3.525 2.645 3.525 4.938 0 2.996-2.293 5.29-5.289 5.29-2.996 0-5.29-2.294-5.29-5.29 0-2.293 1.412-4.235 3.527-4.938V24.333c-2.115-.71-3.526-2.645-3.526-4.938 0-.882.179-1.584.53-2.294l-7.232-7.225L1.412 30.153C.53 31.034 0 32.267 0 33.5s.53 2.466 1.412 3.347l28.74 28.741C31.035 66.47 32.268 67 33.5 67c1.233 0 2.466-.53 3.347-1.412l28.741-28.74C66.47 35.965 67 34.732 67 33.5c0-1.233-.53-2.466-1.412-3.347z"/></defs></svg>
